X:1
T:Title
%%score ( 1 2 ) 3 { ( 4 6 8 ) | ( 5 7 ) }
L:1/8
Q:1/4=90
M:4/4
K:C
V:1 treble nm="Choir Aahs"
V:2 treble 
V:3 bass nm="Choir Aahs"
V:4 treble nm="Grand Piano"
V:6 treble 
V:8 treble 
V:5 bass 
V:7 bass 
V:1
 z8 | z8 | z8 | z8 | z8 | z8 | z8 |[M:9/8] z9 |[M:4/4] [ce]2 [Bd]>[Ac] [GB]3 [FA] | %9
 [EG][E^G] [FB]>[FA] [FA]2 [E=G]2 | [Ec]2 [DB]>[CA] [Dd]3 [Dc] | z4 z G3 | %12
 [ce]2 [Bd]>[Ac] [GB]3 [FA] | [FG][F^G] [FB]>[FA] [FA]2 [E=G]2 | [Gc]2 [G^c]>[Gc] [^Fd]3 [FA] | %15
[M:17/16] [Fc][FB][FA][FB]>[Ec]-[Ec]/-[Ec]/-[Ec]/-[Ec]-<[Ec][Q:1/4=89][Q:1/4=87][Q:1/4=86][Q:1/4=84][Q:1/4=83][Q:1/4=82][Q:1/4=80][Q:1/4=79][Q:1/4=77][Q:1/4=76][Q:1/4=75][Q:1/4=73][Q:1/4=72][Q:1/4=70][Q:1/4=69] |] %16
V:2
 x8 | x8 | x8 | x8 | x8 | x8 | x8 |[M:9/8] x9 |[M:4/4] x8 | x8 | x8 | %11
 [^CB][CA][=CE][C^F] .[B,G]2 F=F | x8 | x8 | x8 |[M:17/16] x17/2 |] %16
V:3
 z8 | z8 | z8 | z8 | z8 | z8 | z8 |[M:9/8] z9 |[M:4/4] z8 | z8 | z8 | z8 | %12
 [C,C]2 [C,C]>[C,C] [G,D]3 [G,B,] | [G,B,][G,B,] [G,B,]>[G,B,] [C,C]2 [C,C]2 | %14
 [E,C]2 [A,,A,]>[A,,A,] [D,A,]3 [D,D] | %15
[M:17/16] [G,D][G,D][G,,G,][G,,G,]>[C,G,]-[C,G,]/-[C,G,]/-[C,G,]/-[C,G,]-<[C,G,] |] %16
V:4
 [Ec]2 [EB]>[EA] [FG]3 [F^G] | AGDG F2 E2 | [Gc]2 [GB]>[GA] [GB]3 [GB] | z4 d4 | %4
w: John~W.~Mullen * * * *||||
 c2 [EB]>[EA] [FG]3 [F^G] | AGDG F2 E2 | E2 EE [B,GB]3 [G,E] |[M:9/8] z3 z [B,=E]2 z3 | %8
w: ||||
[M:4/4] [ec']2 [db]>a [Bg]3 [Af] | [Ge][^Ge] [Bg]>e [Af]2 [=Ge]2 | [ec']2 [eb]>a [Bd]4 | %11
w: |||
 [^CB][GA][=CE][D^FA] [G,B,DG][Bgb][cac'][dbd'] | [ec'e']2 [dbd']2 [Bgb]4 | z2 [B=gb]2 z4 | %14
w: |||
 [CGc]2 [Gc]>[Gc] [^Fd]3 [FA] |[M:17/16] [Fc][FB][FA][FB]>[Ec]-[Ec]/-[Ec]/-[Ec]/-[Ec]-<[Ec] |] %16
w: ||
V:5
 [C,C]2 [C,C]>[C,C] [C,B,]3 [D,B,] | [G,B,F][G,B,D][K:bass][G,B,][G,B,D] [C,A,C]2 [C,G,C]2 | %2
 [E,C]2 [E,C]>[E,C] [D,D]3 [D,D] | [D,A,][D,A,] [D,D]>[D,C] [G,B,]2 [A,C][B,D] | %4
 [CE]2 [C,C]>[C,C] [D,B,]3 [D,B,] | [G,B,F][G,B,D][K:bass][G,B,][G,B,D] [C,A,C]2 [C,G,C]2 | %6
 [C,_B,]2 [C,B,][C,B,] B,,3 B,, |[M:9/8] B,,B,,B,, B,, E,2 D,3 | %8
[M:4/4] C,G,[K:treble] .C>c[K:bass] G,,G,B,G, | G,,G, .B,>A C,G,CG, | %10
 A,,A,[K:treble] .C>B[K:bass] D,G,B,D | z ^C z =C G,,[K:treble][G,DG][G,_E^F][G,D=F] | %12
 z2[K:treble] z [G,C][K:bass] z4 | [G,,G,][K:treble][G,B,FG] .[G,B,F]>[Af][K:bass] [C,,C,]G,CE | %14
 E,2 [A,,A,]>[A,,A,] [D,A,]3 [D,D] | %15
[M:17/16] [G,D][G,D][G,,G,][G,,G,]>[C,G,]-[C,G,]/-[C,G,]/-[C,G,]/-[C,G,]-<[C,G,] |] %16
V:6
 x8 | x8 | x8 | [^Fd][Fc] [FB]>[FA] G2 F=F | x8 | x8 | x8 | %7
[M:9/8] [B,EG][A,_E^F][G,B,=E] [A,B,_E] G,2- [G,=FG]3 |[M:4/4] x8 | x8 | x8 | x8 | %12
 z E z z/ c'/ z FF[Afa] | [Gfg][f^g] z z/ a/ [Afa]2 [Ge=g]2 | x8 |[M:17/16] x17/2 |] %16
V:7
 x8 | x2[K:bass] x6 | x8 | x8 | x8 | x2[K:bass] x6 | x8 |[M:9/8] x9 | %8
[M:4/4] z2[K:treble] z G,[K:bass] z4 | z2 z G, z4 | z2[K:treble] z A,[K:bass] z4 | %11
 D,2 D,2 z4[K:treble] | [C,,C,][G,C][K:treble] .[G,CE]>[ca][K:bass] [D,,D,][G,B,][G,B,][G,B,F] | %13
 z2[K:treble] z [G,B,][K:bass] z4 | x8 |[M:17/16] x17/2 |] %16
V:8
 x8 | x8 | x8 | x8 | x8 | x8 | x8 |[M:9/8] x9 |[M:4/4] x8 | x8 | x8 | x8 | z2 z E z4 | z2 z F z4 | %14
 x8 |[M:17/16] x17/2 |] %16

